svgs/thin/dragon.svg

<svg xmlns="http://www.w3.org/2000/svg" viewBox="0 0 640 512"><!--! Font Awesome Pro 6.3.0 by @fontawesome - https://fontawesome.com License - https://fontawesome.com/license (Commercial License) Copyright 2023 Fonticons, Inc. --><path d="M26.92 260.2l131.1-23.47L98.18 280.9C91.42 287.5 89.4 296.9 92.93 305.7C96.48 314.4 104.9 320 114.4 320h213.6c4.422 0 7.1-3.594 7.1-8S332.4 304 328 304h-213.6c-6.679 0-9.064-7.766-5.953-10.97l86.67-63.75c2.1-2.188 4.078-6.188 2.609-9.594C196.3 216.3 192.8 214.3 189 214.1L24.42 244.4C17.59 245.4 12.64 237.3 19.09 231.1l111.2-107.7c17.92-14.88 44.12-16.44 63.45-3.781l113.7 79.19c3.656 2.5 8.625 1.688 11.14-2c2.531-3.625 1.641-8.594-1.984-11.12L202.6 107.3C177.2 90.66 143.2 92.66 119.6 112.4L8.468 220C.3588 226.7-2.188 237.1 1.968 246.6C6.171 256.2 16.15 261.7 26.92 260.2zM485.5 71.59l47.1 16C534.3 87.88 535.2 88 536 88c3.344 0 6.468-2.125 7.593-5.469c1.391-4.188-.8749-8.719-5.062-10.12l-47.1-16c-4.156-1.375-8.703 .875-10.12 5.062C479 65.66 481.3 70.19 485.5 71.59zM575.2 289.9l-100.7-50.25c-16.25-8.125-26.5-24.75-26.5-43V160h63.99l28.12 22.62C546.1 188.6 554.2 192 562.7 192h30.1c11.1 0 23.12-6.875 28.5-17.75l14.37-28.62c5.375-10.88 4.249-23.75-2.999-33.5l-74.49-99.37C552.1 4.75 543.5 0 533.5 0H296C288.9 0 285.4 8.625 290.4 13.62L351.1 64L292.4 88.75c-5.875 3-5.875 11.37 0 14.37L351.1 128l-.0011 108.6c0 72 35.1 139.4 95.99 179.4c-195.6 6.75-344.5 41-434.1 60.88c-8.125 1.75-13.87 9-13.87 17.38C.0463 504 8.046 512 17.79 512h499.1c63.24 0 119.6-47.5 122.1-110.8C642.3 354 617.1 310.9 575.2 289.9zM516.9 496H17.81c-2.047 0-2.394-3.076-.4101-3.504l8.503-1.889c87.74-19.5 234.6-52.13 422.6-58.62l49.7-1.715l-41.37-27.59c-55.64-37.1-88.86-99.18-88.86-166.1V117.3L316.7 95.97l66.11-27.45L318.6 16h214.9c4.984 0 9.812 2.42 12.82 6.348l74.45 99.32c3.642 4.898 4.215 11.36 1.539 16.77l-14.42 28.72C605.2 172.5 599.7 176 593.7 176h-30.99c-4.269 0-8.285-1.664-11.31-4.688L517.6 144h-74.29L421.7 122.3c-3.125-3.125-8.187-3.125-11.31 0s-3.125 8.188 0 11.31l21.64 21.64v41.33c0 24.45 13.54 46.41 35.35 57.32l100.7 50.23c36.59 18.35 57.98 55.23 55.81 96.22C621 453.1 573 496 516.9 496z"/></svg>

<svg xmlns="http://www.w3.org/2000/svg" viewBox="0 0 640 512"><!-- Font Awesome Pro 6.0.0-alpha2 by @fontawesome - https://fontawesome.com License - https://fontawesome.com/license (Commercial License) --><path d="M26.92 260.219L158.039 236.75L98.182 280.875C91.417 287.469 89.401 296.938 92.932 305.656C96.479 314.375 104.916 320 114.447 320H328.015C332.437 320 336.015 316.406 336.015 312S332.437 304 328.015 304H114.447C107.768 304 105.383 296.234 108.494 293.031L195.162 229.281C198.162 227.094 199.24 223.094 197.771 219.688C196.318 216.281 192.756 214.312 189.022 214.969L24.42 244.406C17.59 245.441 12.639 237.33 19.092 231.969L130.243 124.312C148.164 109.437 174.366 107.875 193.693 120.531L307.438 199.719C311.094 202.219 316.062 201.406 318.578 197.719C321.109 194.094 320.218 189.125 316.594 186.594L202.646 107.281C177.225 90.656 143.243 92.656 119.572 112.406L8.468 220.031C0.359 226.656 -2.188 237.094 1.968 246.594C6.171 256.219 16.155 261.656 26.92 260.219ZM485.476 71.594L533.474 87.594C534.318 87.875 535.161 88 536.005 88C539.349 88 542.473 85.875 543.598 82.531C544.989 78.344 542.723 73.813 538.536 72.406L490.538 56.406C486.382 55.031 481.836 57.281 480.414 61.469C479.023 65.656 481.289 70.188 485.476 71.594ZM575.216 289.875L474.484 239.625C458.237 231.5 447.99 214.875 447.99 196.625V160H511.979L540.099 182.625C546.096 188.625 554.221 192 562.719 192H593.713C605.711 192 616.835 185.125 622.208 174.25L636.58 145.625C641.955 134.75 640.83 121.875 633.582 112.125L559.094 12.75C552.971 4.75 543.471 0 533.474 0H296.015C288.892 0 285.392 8.625 290.392 13.625L352.006 64L292.392 88.75C286.517 91.75 286.517 100.125 292.392 103.125L352.006 128V236.625C352.006 308.625 388 376 447.99 416C252.397 422.75 103.549 457 13.94 476.875C5.816 478.625 0.068 485.875 0.068 494.25C0.068 504 8.065 512 17.813 512H516.852C580.091 512 636.455 464.5 639.83 401.25C642.33 354.001 617.085 310.875 575.216 289.875ZM516.852 496H17.813C15.766 496 15.419 492.924 17.403 492.496L25.906 490.607C113.642 471.111 260.485 438.48 448.54 431.99L498.239 430.275L456.864 402.687C401.224 365.586 368.005 303.508 368.005 236.625V117.34L316.717 95.975L382.823 68.529L318.574 16H533.474C538.458 16 543.286 18.42 546.292 22.348L620.743 121.672C624.385 126.57 624.958 133.033 622.282 138.445L607.865 167.162C605.213 172.531 599.656 176 593.713 176H562.719C558.449 176 554.434 174.336 551.412 171.312L517.615 144H443.322L421.667 122.344C418.542 119.219 413.48 119.219 410.355 122.344S407.23 130.531 410.355 133.656L431.99 155.293V196.625C431.99 221.074 445.531 243.035 467.342 253.943L568.044 304.178C604.638 322.531 626.024 359.404 623.854 400.396C621.042 453.113 573.04 496 516.852 496Z"/></svg>
